X:1
T:At the Cross There’s Room
T:Robert Lowry
T:At the Cross There’s Room
T:Public Domain
T:Public Domain
C:Robert Lowry
Z:Public Domain
%%score ( 1 2 ) ( 3 4 )
L:1/8
M:3/4
K:Ab
V:1 treble 
V:2 treble 
V:3 bass 
V:4 bass 
V:1
 [Ec]4 [DB]2 | [CA]4 [EG]2 | ([DF]2 [Fd]2) [DF]2 | [CE]6 | [DG]4 [CA]2 | [EB]4 [Ec]2 | [EB]6 | %7
w: 1.~Mourn- er,|where- so-|ever * thou|art,|At the|cross there’s|room!|
w: 2.~Haste thee,|wand- ’rer,|tar- * ry|not,|At the|cross there’s|room!|
w: 3.~Thought- less|sin- ner,|come * to-|day;|At the|cross there’s|room!|
w: 4.~Bless- èd|thought! For|ev- * ery|one|At the|cross there’s|room!|
 [Ec]4 [DB]2 | [CA]4 [EG]2 | ([DF]2 [Fd]2) [DF]2 | [CE]6 | [DG]4 [CA]2 | [DB]4 [Ec]2 | [CA]6 | %14
w: Tell the|bur- den|of * thy|heart,|At the|cross there’s|room!|
w: Seek that|con- se-|crat- * ed|spot;|At the|cross there’s|room!|
w: Hark! the|Bride and|Spir- * it|say,|At the|cross there’s|room!|
w: Love’s a-|ton- ing|work * is|done;|At the|cross there’s|room!|
 [DB]4 [CA]2 | [EG]4 E2 | [Ed]4 [Ec]2 | [EB]6 | [Ec]4 [DB]2 | [CA]4 [EB]2 | [Ec]4 [Ee]2 | [EB]6 | %22
w: Tell it|in thy|ior’s ear,|Cast|a- way|thine ev-|ery fear,|On-|
w: Hea- vy|la- den,|op- pressed,|Love|can soothe|thy trou-|bled breast;|In|
w: Now a|liv- ing|tain see,|O-|pened there|for you|and me,|Rich|
w: Streams of|bound- less|rcy flow,|Free|to all|who thi-|ther go;|Oh,|
 [Ec]4 [Ed]2 | [Ee]4 [Ec]2 | [DB]4 [Fc]2 | [Fd]6 | [EA]4 [EG]2 | [Ec]4 [DB]2 | [CA]6 |] %29
w: ly speak,|and He|will hear;|At|the cross|there’s room!||
w: the Sav-|ior find|thy rest;|At|the cross|there’s room!||
w: and poor,|for bond|and free,|At|the cross|there’s room!||
w: that all|the world|might know|At|the cross|there’s room!||
V:2
 x6 | x6 | x6 | x6 | x6 | x6 | x6 | x6 | x6 | x6 | x6 | x6 | x6 | x6 | x6 | x4 E2 | x6 | x6 | x6 | %19
w: |||||||||||||||Sav-||||
w: |||||||||||||||sore||||
w: |||||||||||||||foun-||||
w: |||||||||||||||me-||||
 x6 | x6 | x6 | x6 | x6 | x6 | x6 | x6 | x6 | x6 |] %29
w: ||||||||||
w: ||||||||||
w: ||||||||||
w: ||||||||||
V:3
 [A,,A,]4 [A,,A,]2 | [A,,A,]4 [C,A,]2 | [D,A,]4 [D,A,]2 | ([A,,A,]4 [C,E,]2) | [E,B,]4 [E,A,]2 | %5
 [E,G,]4 [E,A,]2 | (E,4 C,2) | [A,,A,]4 [A,,A,]2 | [A,,A,]4 [C,A,]2 | [D,A,]4 [D,A,]2 | %10
 (A,4 ^A,2) | [E,B,]4 [E,A,]2 | [E,G,]4 [E,G,]2 | (A,,4 C,2) | [E,G,]4 [E,A,]2 | [E,B,]4 [E,G,]2 | %16
 [E,B,]4 [E,A,]2 | [E,G,]6 | A,4 [E,G,]2 | [F,A,]4 [E,G,]2 | [A,,A,]4 [C,A,]2 | (G,4 A,2) | %22
 A,4 [A,B,]2 | [A,C]4 [A,,A,]2 | [D,F,]4 [C,=A,]2 | (B,,4 D,2) | [E,C]4 [E,B,]2 | [E,A,]4 [E,G,]2 | %28
 [A,,A,]6 |] %29
V:4
 x6 | x6 | x6 | x6 | x6 | x6 | G,6 | x6 | x6 | x6 | ^A,,6 | x6 | x6 | A,6 | x6 | x6 | x6 | x6 | %18
 x6 | x6 | x6 | E,6 | x6 | x6 | x6 | B,6 | x6 | x6 | x6 |] %29

